X:157
T:Rule Britannia. JGi.157
M:4/4
L:1/8
Q:1/4=80
S:Joshua Gibbons MS,1823,Tealby,Lincs.
R:Air
O:Tealby,Lincolnshire
Z:VMP/R.Greig, 2009
K:C
G|c2c2 c/d/e/f/g c|d3d{ef}e2zG|(c/d/c/d/ e/f/e/f/) gded|c(d/e/) (dc)B2z2|
zGdB gf/e/ d/c/B/A/|(G2{GA})(A2{GA})G2z2::c2 c>GA>Fzc|f>edcB2zd|
~g2f2e/c/f/d/ (gc)|G2~d2({Bd}c4)|e2ze ffzf|f>ed>cB4|
g2f2(e/c/f/d/ gf)|e2~d2({cd}c4):|

